; G-Code generated by Simplify3D(R) Version 3.0.1
; Jan 9, 2016 at 1:43:57 PM
; Settings Summary
;   processName,Process3
;   applyToModels,hubasnframe
;   profileName,Awsome PLA (modified)
;   profileVersion,2015-11-02 21:07:51
;   baseProfile,Default
;   printMaterial,PLA
;   printQuality,High
;   printExtruders,
;   extruderName,Extruder 1
;   extruderToolheadNumber,0
;   extruderDiameter,0.4
;   extruderAutoWidth,1
;   extruderWidth,0.48
;   extrusionMultiplier,0.93
;   extruderUseRetract,1
;   extruderRetractionDistance,3
;   extruderExtraRestartDistance,0
;   extruderRetractionZLift,0.2
;   extruderRetractionSpeed,1800
;   extruderUseCoasting,1
;   extruderCoastingDistance,0.2
;   extruderUseWipe,0
;   extruderWipeDistance,5
;   primaryExtruder,0
;   layerHeight,0.1
;   topSolidLayers,4
;   bottomSolidLayers,4
;   perimeterOutlines,3
;   printPerimetersInsideOut,1
;   startPointOption,2
;   startPointOriginX,0
;   startPointOriginY,0
;   startPointOriginZ,300
;   sequentialIslands,0
;   spiralVaseMode,0
;   firstLayerHeightPercentage,200
;   firstLayerWidthPercentage,100
;   firstLayerUnderspeed,0.5
;   useRaft,0
;   raftExtruder,0
;   raftLayers,3
;   raftOffset,3
;   raftSeparationDistance,0.14
;   raftInfill,85
;   disableRaftBaseLayers,0
;   useSkirt,1
;   skirtExtruder,0
;   skirtLayers,1
;   skirtOutlines,2
;   skirtOffset,2
;   usePrimePillar,0
;   primePillarExtruder,999
;   primePillarWidth,12
;   primePillarLocation,7
;   primePillarSpeedMultiplier,1
;   useOozeShield,0
;   oozeShieldExtruder,999
;   oozeShieldOffset,2
;   oozeShieldOutlines,1
;   oozeShieldSidewallShape,1
;   oozeShieldSidewallAngle,30
;   oozeShieldSpeedMultiplier,1
;   infillExtruder,0
;   internalInfillPattern,Full Honeycomb
;   externalInfillPattern,Rectilinear
;   infillPercentage,15
;   outlineOverlapPercentage,20
;   infillExtrusionWidthPercentage,100
;   minInfillLength,5
;   infillLayerInterval,1
;   infillAngles,0,120,-120
;   overlapInfillAngles,0
;   generateSupport,0
;   supportExtruder,0
;   supportInfillPercentage,40
;   supportExtraInflation,0
;   denseSupportLayers,3
;   denseSupportInfillPercentage,70
;   supportLayerInterval,1
;   supportHorizontalPartOffset,0.5
;   supportUpperSeparationLayers,1
;   supportLowerSeparationLayers,1
;   supportType,0
;   supportGridSpacing,4
;   maxOverhangAngle,30
;   supportAngles,45
;   temperatureName,Extruder 1 Temperature,Heated Bed
;   temperatureNumber,0,0
;   temperatureSetpointCount,1,1
;   temperatureSetpointLayers,1,1
;   temperatureSetpointTemperatures,210,60
;   temperatureStabilizeAtStartup,1,1
;   temperatureHeatedBed,0,1
;   temperatureRelayBetweenLayers,0,0
;   temperatureRelayBetweenLoops,0,0
;   fanLayers,1,2
;   fanSpeeds,0,100
;   blipFanToFullPower,0
;   adjustSpeedForCooling,1
;   minSpeedLayerTime,15
;   minCoolingSpeedSlowdown,20
;   increaseFanForCooling,0
;   minFanLayerTime,45
;   maxCoolingFanSpeed,100
;   increaseFanForBridging,1
;   bridgingFanSpeed,100
;   use5D,1
;   relativeEdistances,0
;   allowEaxisZeroing,1
;   independentExtruderAxes,0
;   includeM10123,0
;   stickySupport,1
;   applyToolheadOffsets,0
;   gcodeXoffset,0
;   gcodeYoffset,0
;   gcodeZoffset,0
;   overrideMachineDefinition,1
;   machineTypeOverride,0
;   strokeXoverride,200
;   strokeYoverride,200
;   strokeZoverride,200
;   originOffsetXoverride,0
;   originOffsetYoverride,0
;   originOffsetZoverride,0
;   homeXdirOverride,-1
;   homeYdirOverride,-1
;   homeZdirOverride,-1
;   flipXoverride,1
;   flipYoverride,-1
;   flipZoverride,1
;   toolheadOffsets,0,0|0,0|0,0|0,0|0,0|0,0
;   overrideFirmwareConfiguration,1
;   firmwareTypeOverride,RepRap (Marlin/Repetier/Sprinter)
;   GPXconfigOverride,r2
;   baudRateOverride,115200
;   overridePrinterModels,0
;   printerModelsOverride
;   startingGcode,G28 ; home all axes,G29,,G1 X100 Y0 Z15 F3000 ; Bring extruder to the front,G92 E0  ; zero the extruded length,G1 E5 F225 ; purge nozzle with 5mm of filament,G92 E0 ; zero the extruded length again
;   layerChangeGcode,
;   retractionGcode,
;   toolChangeGcode,
;   endingGcode,M104 S0 ; turn off extruder,M140 S0 ; turn off bed,G91; Rel ,G1 Z10 F5000; raise  ,G90; abs,M107; fan off,M84 ; disable motors
;   createX3G,0
;   celebration,0
;   celebrationSong,Random Song
;   createMB5G,0
;   postProcessing,
;   defaultSpeed,3000
;   outlineUnderspeed,0.4
;   solidInfillUnderspeed,1
;   supportUnderspeed,1
;   rapidXYspeed,4800
;   rapidZspeed,1002
;   minBridgingArea,50
;   bridgingExtraInflation,0
;   bridgingExtrusionMultiplier,1
;   bridgingSpeedMultiplier,1
;   filamentDiameter,2.89
;   filamentPricePerKg,24.96
;   filamentDensity,1.25
;   useMinPrintHeight,0
;   minPrintHeight,0
;   useMaxPrintHeight,0
;   maxPrintHeight,0
;   useDiaphragm,0
;   diaphragmLayerInterval,20
;   robustSlicing,1
;   mergeAllIntoSolid,0
;   onlyRetractWhenCrossingOutline,1
;   retractBetweenLayers,0
;   useRetractionMinTravel,1
;   retractionMinTravel,3
;   retractWhileWiping,0
;   onlyWipeOutlines,1
;   avoidCrossingOutline,1
;   maxMovementDetourFactor,3
;   toolChangeRetractionDistance,12
;   toolChangeExtraRestartDistance,-0.5
;   toolChangeRetractionSpeed,600
;   allowThinWallGapFill,1
;   thinWallAllowedOverlapPercentage,10
;   horizontalSizeCompensation,0
G90
M82
M106 S0
M140 S60
M190 S60
M104 S210 T0
M109 S210 T0
G28 ; home all axes
G29
G1 X100 Y0 Z15 F3000 ; Bring extruder to the front
G92 E0  ; zero the extruded length
G1 E5 F225 ; purge nozzle with 5mm of filament
G92 E0 ; zero the extruded length again
G92 E0
G1 E-3.0000 F1800
G1 Z0.400 F1002
; layer 1, Z = 0.2
T0
; tool H0.200 W0.480
; skirt
G1 X61.396 Y61.910 F4800
G1 Z0.200 F1002
G1 E0.0000 F540
G92 E0
G1 X61.556 Y61.633 E0.0043 F1500
G1 X63.203 Y60.482 E0.0317
G1 X63.225 Y60.468 E0.0321
G1 X63.378 Y60.377 E0.0345
G1 X63.402 Y60.364 E0.0348
G1 X64.303 Y59.918 E0.0485
G1 X64.328 Y59.907 E0.0489
G1 X64.492 Y59.840 E0.0513
G1 X64.518 Y59.831 E0.0517
G1 X65.476 Y59.525 E0.0654
G1 X65.502 Y59.518 E0.0657
G1 X65.675 Y59.477 E0.0682
G1 X65.701 Y59.472 E0.0685
G1 X66.694 Y59.313 E0.0822
G1 X66.721 Y59.310 E0.0826
G1 X66.898 Y59.295 E0.0850
G1 X66.925 Y59.294 E0.0854
G1 X67.930 Y59.285 E0.0990
G1 X67.957 Y59.286 E0.0994
G1 X68.135 Y59.298 E0.1018
G1 X68.161 Y59.301 E0.1022
G1 X69.157 Y59.444 E0.1159
G1 X69.183 Y59.448 E0.1163
G1 X69.357 Y59.487 E0.1187
G1 X69.383 Y59.494 E0.1190
G1 X70.346 Y59.784 E0.1327
G1 X70.371 Y59.793 E0.1331
G1 X70.537 Y59.857 E0.1355
G1 X70.562 Y59.867 E0.1359
G1 X71.470 Y60.299 E0.1496
G1 X71.494 Y60.311 E0.1499
G1 X71.648 Y60.399 E0.1523
G1 X71.671 Y60.413 E0.1527
G1 X72.505 Y60.976 E0.1664
G1 X72.526 Y60.992 E0.1668
G1 X72.666 Y61.102 E0.1692
G1 X72.686 Y61.120 E0.1696
G1 X73.426 Y61.801 E0.1832
G1 X73.445 Y61.820 E0.1836
G1 X73.566 Y61.950 E0.1860
G1 X73.584 Y61.970 E0.1864
G1 X74.213 Y62.755 E0.2001
G1 X74.229 Y62.776 E0.2004
G1 X74.330 Y62.923 E0.2029
G1 X74.344 Y62.946 E0.2032
G1 X74.849 Y63.815 E0.2169
G1 X74.861 Y63.839 E0.2173
G1 X74.939 Y63.999 E0.2197
G1 X74.949 Y64.024 E0.2201
G1 X75.318 Y64.960 E0.2338
G1 X75.327 Y64.985 E0.2341
G1 X75.379 Y65.155 E0.2365
G1 X75.386 Y65.181 E0.2369
G1 X75.610 Y66.161 E0.2506
G1 X75.615 Y66.188 E0.2510
G1 X75.642 Y66.363 E0.2534
G1 X75.645 Y66.390 E0.2538
G1 X75.714 Y67.328 E0.2665
G1 X75.715 Y67.335 E0.2666
G1 X75.717 Y67.382 E0.2673
G1 X75.717 Y67.389 E0.2674
G1 X75.779 Y69.191 E0.2919
G1 X75.956 Y70.865 E0.3148
G1 X76.251 Y72.522 E0.3377
G1 X76.663 Y74.154 E0.3606
G1 X77.189 Y75.752 E0.3835
G1 X77.828 Y77.310 E0.4065
G1 X78.575 Y78.818 E0.4294
G1 X79.427 Y80.269 E0.4523
G1 X80.380 Y81.657 E0.4752
G1 X81.428 Y82.973 E0.4981
G1 X82.568 Y84.212 E0.5210
G1 X83.792 Y85.366 E0.5439
G1 X84.918 Y86.286 E0.5637
G1 X116.843 Y86.286 E0.9982
G1 X117.815 Y85.207 E1.0180
G1 X118.900 Y83.837 E1.0418
G1 X119.896 Y82.399 E1.0655
G1 X120.797 Y80.901 E1.0893
G1 X121.601 Y79.349 E1.1131
G1 X122.305 Y77.748 E1.1369
G1 X122.904 Y76.106 E1.1607
G1 X123.398 Y74.429 E1.1845
G1 X123.784 Y72.723 E1.2083
G1 X124.060 Y70.997 E1.2321
G1 X124.225 Y69.256 E1.2559
G1 X124.282 Y67.397 E1.2812
G1 X124.282 Y67.389 E1.2813
G1 X124.285 Y67.338 E1.2820
G1 X124.286 Y67.330 E1.2821
G1 X124.355 Y66.390 E1.2950
G1 X124.358 Y66.363 E1.2953
G1 X124.385 Y66.188 E1.2978
G1 X124.390 Y66.161 E1.2981
G1 X124.614 Y65.181 E1.3118
G1 X124.621 Y65.155 E1.3122
G1 X124.673 Y64.985 E1.3146
G1 X124.682 Y64.960 E1.3150
G1 X125.051 Y64.024 E1.3286
G1 X125.061 Y63.999 E1.3290
G1 X125.139 Y63.839 E1.3314
G1 X125.151 Y63.815 E1.3318
G1 X125.656 Y62.946 E1.3455
G1 X125.670 Y62.923 E1.3459
G1 X125.771 Y62.776 E1.3483
G1 X125.787 Y62.755 E1.3486
G1 X126.416 Y61.970 E1.3623
G1 X126.434 Y61.950 E1.3627
G1 X126.555 Y61.820 E1.3651
G1 X126.574 Y61.801 E1.3655
G1 X127.314 Y61.120 E1.3792
G1 X127.334 Y61.102 E1.3795
G1 X127.474 Y60.992 E1.3819
G1 X127.495 Y60.976 E1.3823
G1 X128.329 Y60.413 E1.3960
G1 X128.352 Y60.399 E1.3964
G1 X128.506 Y60.311 E1.3988
G1 X128.530 Y60.299 E1.3992
G1 X129.438 Y59.867 E1.4128
G1 X129.463 Y59.857 E1.4132
G1 X129.629 Y59.793 E1.4156
G1 X129.654 Y59.784 E1.4160
G1 X130.617 Y59.494 E1.4297
G1 X130.643 Y59.487 E1.4300
G1 X130.817 Y59.449 E1.4325
G1 X130.843 Y59.444 E1.4328
G1 X131.839 Y59.301 E1.4465
G1 X131.865 Y59.298 E1.4469
G1 X132.043 Y59.286 E1.4493
G1 X132.070 Y59.285 E1.4497
G1 X133.075 Y59.294 E1.4634
G1 X133.102 Y59.295 E1.4637
G1 X133.279 Y59.310 E1.4661
G1 X133.306 Y59.313 E1.4665
G1 X134.299 Y59.472 E1.4802
G1 X134.325 Y59.477 E1.4806
G1 X134.498 Y59.518 E1.4830
G1 X134.524 Y59.525 E1.4834
G1 X135.482 Y59.831 E1.4970
G1 X135.508 Y59.840 E1.4974
G1 X135.672 Y59.907 E1.4998
G1 X135.697 Y59.918 E1.5002
G1 X136.598 Y60.364 E1.5139
G1 X136.622 Y60.377 E1.5142
G1 X136.775 Y60.468 E1.5167
G1 X136.797 Y60.482 E1.5170
G1 X138.444 Y61.633 E1.5444
G1 X138.604 Y61.910 E1.5487
G1 X138.606 Y61.928 E1.5490
G1 X139.459 Y63.132 E1.5691
G1 X139.473 Y63.153 E1.5694
G1 X139.557 Y63.291 E1.5716
G1 X139.569 Y63.312 E1.5719
G1 X139.990 Y64.123 E1.5844
G1 X140.001 Y64.145 E1.5847
G1 X140.066 Y64.293 E1.5869
G1 X140.075 Y64.316 E1.5872
G1 X140.381 Y65.176 E1.5997
G1 X140.389 Y65.200 E1.6000
G1 X140.433 Y65.356 E1.6022
G1 X140.439 Y65.380 E1.6025
G1 X140.625 Y66.274 E1.6150
G1 X140.629 Y66.298 E1.6153
G1 X140.651 Y66.458 E1.6175
G1 X140.654 Y66.483 E1.6178
G1 X140.715 Y67.372 E1.6300
G1 X140.716 Y67.390 E1.6302
G1 X140.718 Y67.509 E1.6318
G1 X140.718 Y67.527 E1.6321
G1 X140.653 Y69.551 E1.6596
G1 X140.652 Y69.562 E1.6598
G1 X140.648 Y69.637 E1.6608
G1 X140.647 Y69.649 E1.6610
G1 X140.455 Y71.643 E1.6882
G1 X140.454 Y71.654 E1.6884
G1 X140.444 Y71.729 E1.6894
G1 X140.443 Y71.741 E1.6896
G1 X140.124 Y73.718 E1.7168
G1 X140.122 Y73.730 E1.7170
G1 X140.108 Y73.804 E1.7180
G1 X140.106 Y73.815 E1.7182
G1 X139.662 Y75.768 E1.7454
G1 X139.659 Y75.779 E1.7456
G1 X139.640 Y75.852 E1.7466
G1 X139.637 Y75.863 E1.7468
G1 X139.069 Y77.785 E1.7741
G1 X139.066 Y77.796 E1.7742
G1 X139.042 Y77.867 E1.7752
G1 X139.038 Y77.878 E1.7754
G1 X138.349 Y79.759 E1.8027
G1 X138.345 Y79.770 E1.8028
G1 X138.317 Y79.840 E1.8038
G1 X138.313 Y79.850 E1.8040
G1 X137.505 Y81.683 E1.8313
G1 X137.500 Y81.694 E1.8314
G1 X137.468 Y81.762 E1.8324
G1 X137.462 Y81.772 E1.8326
G1 X136.539 Y83.550 E1.8599
G1 X136.534 Y83.560 E1.8600
G1 X136.497 Y83.626 E1.8610
G1 X136.491 Y83.636 E1.8612
G1 X135.457 Y85.351 E1.8885
G1 X135.451 Y85.361 E1.8886
G1 X135.410 Y85.424 E1.8896
G1 X135.403 Y85.434 E1.8898
G1 X134.262 Y87.080 E1.9171
G1 X134.255 Y87.089 E1.9172
G1 X134.210 Y87.150 E1.9182
G1 X134.203 Y87.159 E1.9184
G1 X132.959 Y88.729 E1.9457
G1 X132.951 Y88.737 E1.9458
G1 X132.903 Y88.795 E1.9469
G1 X132.895 Y88.804 E1.9470
G1 X131.720 Y90.106 E1.9709
G1 X131.720 Y109.908 E2.2404
G1 X132.893 Y111.209 E2.2642
G1 X132.901 Y111.218 E2.2644
G1 X132.949 Y111.275 E2.2654
G1 X132.957 Y111.284 E2.2656
G1 X134.199 Y112.853 E2.2928
G1 X134.206 Y112.863 E2.2930
G1 X134.251 Y112.923 E2.2940
G1 X134.258 Y112.932 E2.2942
G1 X135.398 Y114.577 E2.3214
G1 X135.405 Y114.587 E2.3216
G1 X135.446 Y114.650 E2.3226
G1 X135.452 Y114.660 E2.3227
G1 X136.485 Y116.374 E2.3500
G1 X136.491 Y116.384 E2.3501
G1 X136.528 Y116.450 E2.3512
G1 X136.533 Y116.460 E2.3513
G1 X137.455 Y118.236 E2.3786
G1 X137.460 Y118.247 E2.3787
G1 X137.493 Y118.314 E2.3797
G1 X137.498 Y118.325 E2.3799
G1 X138.305 Y120.157 E2.4071
G1 X138.310 Y120.167 E2.4073
G1 X138.338 Y120.237 E2.4083
G1 X138.342 Y120.248 E2.4085
G1 X139.031 Y122.127 E2.4357
G1 X139.035 Y122.138 E2.4359
G1 X139.058 Y122.209 E2.4369
G1 X139.062 Y122.220 E2.4371
G1 X139.630 Y124.140 E2.4643
G1 X139.633 Y124.151 E2.4645
G1 X139.652 Y124.223 E2.4655
G1 X139.655 Y124.235 E2.4656
G1 X140.100 Y126.186 E2.4929
G1 X140.102 Y126.198 E2.4930
G1 X140.116 Y126.271 E2.4941
G1 X140.118 Y126.283 E2.4942
G1 X140.438 Y128.259 E2.5215
G1 X140.440 Y128.270 E2.5216
G1 X140.449 Y128.345 E2.5226
G1 X140.451 Y128.356 E2.5228
G1 X140.644 Y130.348 E2.5500
G1 X140.645 Y130.360 E2.5502
G1 X140.650 Y130.435 E2.5512
G1 X140.650 Y130.446 E2.5514
G1 X140.717 Y132.469 E2.5789
G1 X140.718 Y132.487 E2.5792
G1 X140.715 Y132.605 E2.5808
G1 X140.715 Y132.623 E2.5810
G1 X140.654 Y133.516 E2.5932
G1 X140.652 Y133.540 E2.5935
G1 X140.630 Y133.701 E2.5957
G1 X140.626 Y133.725 E2.5961
G1 X140.440 Y134.622 E2.6085
G1 X140.434 Y134.646 E2.6089
G1 X140.390 Y134.802 E2.6111
G1 X140.382 Y134.826 E2.6114
G1 X140.075 Y135.689 E2.6239
G1 X140.066 Y135.712 E2.6242
G1 X140.001 Y135.861 E2.6264
G1 X139.991 Y135.883 E2.6268
G1 X139.568 Y136.696 E2.6392
G1 X139.556 Y136.717 E2.6396
G1 X139.472 Y136.856 E2.6418
G1 X139.458 Y136.876 E2.6421
G1 X138.581 Y138.114 E2.6628
G1 X138.434 Y138.369 E2.6668
G1 X138.369 Y138.414 E2.6678
G1 X138.347 Y138.445 E2.6684
G1 X138.220 Y138.518 E2.6704
G1 X136.789 Y139.518 E2.6941
G1 X136.766 Y139.533 E2.6945
G1 X136.613 Y139.624 E2.6969
G1 X136.589 Y139.637 E2.6973
G1 X135.690 Y140.082 E2.7109
G1 X135.665 Y140.093 E2.7113
G1 X135.500 Y140.160 E2.7137
G1 X135.475 Y140.169 E2.7141
G1 X134.518 Y140.474 E2.7278
G1 X134.492 Y140.482 E2.7281
G1 X134.320 Y140.523 E2.7305
G1 X134.293 Y140.528 E2.7309
G1 X133.302 Y140.687 E2.7446
G1 X133.275 Y140.690 E2.7450
G1 X133.098 Y140.705 E2.7474
G1 X133.071 Y140.706 E2.7477
G1 X132.067 Y140.715 E2.7614
G1 X132.040 Y140.714 E2.7618
G1 X131.863 Y140.702 E2.7642
G1 X131.836 Y140.699 E2.7646
G1 X130.842 Y140.557 E2.7782
G1 X130.815 Y140.552 E2.7786
G1 X130.642 Y140.514 E2.7810
G1 X130.616 Y140.507 E2.7814
G1 X129.654 Y140.218 E2.7950
G1 X129.629 Y140.209 E2.7954
G1 X129.463 Y140.145 E2.7978
G1 X129.438 Y140.134 E2.7982
G1 X128.531 Y139.704 E2.8119
G1 X128.507 Y139.692 E2.8122
G1 X128.353 Y139.604 E2.8146
G1 X128.330 Y139.590 E2.8150
G1 X127.497 Y139.028 E2.8287
G1 X127.475 Y139.012 E2.8290
G1 X127.336 Y138.902 E2.8315
G1 X127.315 Y138.885 E2.8318
G1 X126.577 Y138.205 E2.8455
G1 X126.557 Y138.186 E2.8459
G1 X126.436 Y138.056 E2.8483
G1 X126.418 Y138.036 E2.8486
G1 X125.790 Y137.253 E2.8623
G1 X125.773 Y137.232 E2.8627
G1 X125.673 Y137.085 E2.8651
G1 X125.658 Y137.062 E2.8655
G1 X125.154 Y136.194 E2.8791
G1 X125.141 Y136.170 E2.8795
G1 X125.064 Y136.011 E2.8819
G1 X125.053 Y135.986 E2.8823
G1 X124.684 Y135.052 E2.8959
G1 X124.675 Y135.026 E2.8963
G1 X124.623 Y134.857 E2.8987
G1 X124.616 Y134.831 E2.8991
G1 X124.391 Y133.852 E2.9128
G1 X124.386 Y133.826 E2.9131
G1 X124.359 Y133.650 E2.9155
G1 X124.356 Y133.623 E2.9159
G1 X124.286 Y132.685 E2.9287
G1 X124.285 Y132.677 E2.9288
G1 X124.282 Y132.626 E2.9295
G1 X124.282 Y132.618 E2.9296
G1 X124.223 Y130.759 E2.9550
G1 X124.056 Y129.018 E2.9787
G1 X123.779 Y127.292 E3.0025
G1 X123.392 Y125.587 E3.0263
G1 X122.898 Y123.910 E3.0501
G1 X122.298 Y122.267 E3.0739
G1 X121.595 Y120.667 E3.0977
G1 X120.791 Y119.114 E3.1215
G1 X119.890 Y117.615 E3.1453
G1 X118.896 Y116.177 E3.1691
G1 X117.812 Y114.805 E3.1929
G1 X116.842 Y113.726 E3.2127
G1 X84.919 Y113.726 E3.6471
G1 X83.795 Y114.647 E3.6669
G1 X82.572 Y115.803 E3.6898
G1 X81.433 Y117.042 E3.7127
G1 X80.385 Y118.359 E3.7356
G1 X79.433 Y119.747 E3.7585
G1 X78.581 Y121.198 E3.7815
G1 X77.834 Y122.706 E3.8044
G1 X77.195 Y124.264 E3.8273
G1 X76.668 Y125.862 E3.8502
